X: 64
T:Stony Point
M:4/4
L:1/8
R:Reel
K:G
BA|"G" G2 ge d2 ed|B2 ge "D"dBAB|"G"G2 ge d2 ed|BGAF "D"GAEF|!
"G"G2 ge d2 ed|B2 ge "D"dBAB|"G" G2 ge d2 ed|1 "D"BGAF "G"G2 BA:|2"D"BGAF "G"G2 A2:|!
"Em"B2 e2 d/2 e2 g2|"D"fgaf "Em"gfed|B2 e2 d/2 e2 g2|"D"fgaf "Em"g2 g4|B2 e2 d/2 e2 g2|!
"D" fgaf "Em"gfed|B2 e2 d/2 e2 g2|"D"fgaf "G"g4:|
